images/engagement.svg

<?xml version="1.0" encoding="UTF-8" standalone="no"?>
<svg width="44px" height="39px" viewBox="0 0 44 39" version="1.1" xmlns="http://www.w3.org/2000/svg" xmlns:xlink="http://www.w3.org/1999/xlink">
    <!-- Generator: Sketch 3.6.1 (26313) - http://www.bohemiancoding.com/sketch -->
    <title>engagement</title>
    <desc>Created with Sketch.</desc>
    <defs></defs>
    <g id="Page-1" stroke="none" stroke-width="1" fill="none" fill-rule="evenodd">
        <path d="M32.3515787,0.168410381 C28.0591677,0.168410381 24.1292499,2.75207207 21.7971769,7.00956864 C19.4188937,2.58982305 15.5752348,0 11.2766626,0 C5.72220068,0 0.0640226553,4.73192094 0.000355316338,13.7767906 C-0.0520162044,21.0944271 5.69550148,24.5591626 10.3144642,27.3430683 C11.1308438,27.833923 11.9256587,28.3124549 12.6609137,28.7950944 C17.4770399,31.9486815 20.6562992,36.1599679 21.0834866,37.6294511 C21.1789876,37.9601105 21.4798671,38.185 21.8228492,38.185 L21.834145,38.185 C22.1802078,38.1798655 22.4810873,37.9436802 22.5694001,37.6078864 C22.943189,36.1609948 26.4839145,31.8675569 30.9704082,28.693432 C31.851482,28.0690814 32.8157341,27.4683492 33.8374922,26.8327027 C38.4410516,23.9686993 43.6566389,20.7226919 43.6063212,13.6936123 C43.5426538,4.40023464 37.7283881,0.168410381 32.3515787,0.168410381 L32.3515787,0.168410381 Z M33.0241933,25.5244416 C31.9818973,26.1734377 30.9971074,26.7864925 30.0800923,27.4365155 C26.6964813,29.8302021 23.3210854,33.243593 21.8187416,35.651656 C20.4509207,33.4099496 17.4647172,30.0992479 13.5060463,27.5063442 C12.7533341,27.0134358 11.9420889,26.5256618 11.1113329,26.0245383 C6.6032745,23.3073805 1.4934571,20.2277297 1.54172106,13.7880865 C1.60025393,5.3727019 6.62791993,1.54033885 11.2766626,1.54033885 C15.3965555,1.54033885 19.0635889,4.36018583 21.0865672,9.08286473 C21.2077406,9.36526019 21.4860284,9.54907395 21.7951231,9.54907395 C22.1052447,9.54907395 22.3825056,9.36423329 22.5026521,9.08081095 C24.4383446,4.53270378 28.2132016,1.70874923 32.3515787,1.70874923 C36.9910793,1.70874923 42.0095032,5.46204155 42.0649554,13.7049082 C42.1101387,19.8703711 37.4911759,22.7446434 33.0241933,25.5244416 L33.0241933,25.5244416 Z" id="engagement" fill="#278BC9"></path>
    </g>
</svg>

<svg width='44' height='39' viewBox='0 0 44 39' xmlns='http://www.w3.org/2000/svg'><path d='M32.352.168c-4.293 0-8.223 2.584-10.555 6.842C19.42 2.59 15.575 0 11.277 0 5.722 0 .064 4.732 0 13.777c-.052 7.317 5.696 10.782 10.314 13.566.817.49 1.612.97 2.347 1.452 4.82 3.154 8 7.365 8.428 8.834.096.33.397.55.74.55h.01c.347-.005.648-.24.736-.577.374-1.447 3.915-5.74 8.4-8.915.88-.624 1.847-1.225 2.868-1.86 4.605-2.864 9.82-6.11 9.77-13.14C43.542 4.4 37.73.17 32.35.17zm.672 25.356c-1.042.65-2.027 1.262-2.944 1.913-3.384 2.393-6.76 5.807-8.26 8.215-1.37-2.242-4.355-5.553-8.314-8.146-.753-.493-1.564-.98-2.395-1.48-4.502-2.72-9.612-5.798-9.563-12.238C1.6 5.373 6.627 1.54 11.277 1.54c4.12 0 7.787 2.82 9.81 7.543.12.282.4.466.71.466.31 0 .586-.19.706-.47 1.935-4.55 5.71-7.37 9.85-7.37 4.638 0 9.657 3.75 9.712 11.99.045 6.165-4.574 9.04-9.04 11.82z' fill='#278BC9' fill-rule='evenodd'/></svg>
